X:1
T:Baghdad, CMD
T:Baghdad, CMD
T:Robert Lowry, 1875
T:Public Domain Courtesy of the Cyber Hymnal™
C:Robert Lowry, 1875
Z:Public Domain
Z:Courtesy of the Cyber Hymnal™
%%score ( 1 2 ) ( 3 4 )
L:1/8
Q:1/4=90
M:3/4
K:A
V:1 treble 
V:2 treble 
V:3 bass 
V:4 bass 
V:1
 [CE][CA] [DB] | [Ec]3 [DB] [CA][DF] | [CE]4 [CE]2 | [DF]3 E [DG][CA] | [EB]3 E [EA][EB] | %5
 [Ec]3 [DB] [CA][DF] | [CE]4 [Ec]2 | [EB]3 [EG] [^DF][DG] | E4 E2 | [Ed][Ed] [Ed]3 [Ec] | %10
 [DB][CA] [EG]3 [EG] | [EA][EB] [Ec]2 [Ee]2 | [EB]4 [EB]2 | [Ec][Ed] [Ee]3 [Ed] | %14
 [Fd][Fc] [DF]3 [FB] | [EA][EG] [Ec]2 [EB]2 | [EA]3 |] %17
V:2
 x3 | x6 | x6 | x3 E x2 | x3 E x2 | x6 | x6 | x6 | E4 E2 | x6 | x6 | x6 | x6 | x6 | x6 | x6 | x3 |] %17
V:3
 [A,,A,][A,,A,] [A,,A,] | [A,,A,]3 [A,,A,] [A,,A,][A,,A,] | [A,,A,]4 [A,,A,]2 | %3
 [D,A,]3 [C,A,] [B,,E,][A,,A,] | [E,G,]3 [E,G,] [C,A,][E,G,] | A,3 [E,G,] [F,A,][D,A,] | %6
 [A,,A,]4 [A,,A,]2 | [B,,G,]3 [B,,B,] [B,,A,][B,,B,] | [E,G,]4 [E,G,]2 | %9
 [E,B,][E,B,] [E,B,]3 [E,A,] | [E,G,][E,A,] [E,B,]3 [D,B,] | [C,A,][B,,G,] [A,,A,]2 [C,A,]2 | %12
 [E,G,]4 [E,G,]2 | A,[A,B,] [A,C]3 A, | [D,A,][D,A,] [D,A,]3 [D,D] | [E,C][E,B,] [E,A,]2 [E,D]2 | %16
 [A,,C]3 |] %17
V:4
 x3 | x6 | x6 | x6 | x6 | A,3 x3 | x6 | x6 | x6 | x6 | x6 | x6 | x6 | A, x3 A, x | x6 | x6 | x3 |] %17

